!!!!SEGMENT: pl-kk--kk-i-2--051-004_pekiel-bartlomiej--missa-brevis-sanctus.krn
!!!cenid: 16xx:1732
!!!COM: Pękiel, Bartłomiej
!!!COM-rismID: pe30105642
!!!CDT: <1633-~1670
!!!CNT: Polish
!!!OPR: Missa Brevis
!!!OTL: Sanctus
!!!OMV: 004
!!!PDT: 1661
!!!AGN: Sacred; Mass
!!!SMS-siglum: PL-Kk
!!!SMS-shelfmark: Kk.I.2
!!!SMS-shelfwork: 051-004 M
!!!NIFC-rismSourceID: 300258016
!!!NIFC-rismChildID: 300258069
!!!NIFC-islandoraID: pl-kk:750
!!!URL-pdf-islandora: https://repozytorium.nifc.pl/islandora/object/pl-kk%3A750/datastream/PDF/view#page=87
!!!URL-scan: https://polish.musicsources.pl/pl/lokalizacje/galeria/rekopisy/5828 @EN{Scan on Polish Music Sources Website} @PL{Skany w portalu Dziedzictwo Muzyki Polskiej w otwartym dostępie}
!!!ONB-nifc: Części mszy: Kyrie, Gloria, Credo, Sanctus, Benedictus, Agnus Dei; skany: C: 0090; A: 0194; T: 0293; B: 0394-0395
!!!AIN: 1 alto 1 bass 1 soprn 1 tenor
!!!key: g:dor
**kern	**text	**kern	**text	**kern	**text	**kern	**text
*part4	*part4	*part3	*part3	*part2	*part2	*part1	*part1
*staff4	*staff4	*staff3	*staff3	*staff2	*staff2	*staff1	*staff1
*I"BASVS	*	*I"TENOR	*	*I"ALTVS	*	*I"DISCANTVS	*
*mI"Basso	*	*mI"Tenore II	*	*mI"Tenore I	*	*mI"Alto	*
*I'B	*	*I'T	*	*I'A	*	*I'S	*
*	*	*mI'T 2	*	*mI'T 1	*	*mI'A	*
*Ibass	*	*Itenor	*	*Ialto	*	*Isoprn	*
*ICvox	*	*ICvox	*	*ICvox	*	*ICvox	*
*clefF4	*	*clefC4	*	*clefC4	*	*clefC3	*
*	*	*mclefGv2	*	*mclefGv2	*	*mclefG2	*
*k[b-]	*	*k[b-]	*	*k[b-]	*	*k[b-]	*
*g:dor	*	*g:dor	*	*g:dor	*	*g:dor	*
*M2/1	*	*M2/1	*	*M2/1	*	*M2/1	*
*met(C|)	*	*met(C|)	*	*met(C|)	*	*met(C|)	*
*mmet(c|)	*	*mmet(c|)	*	*mmet(c|)	*	*mmet(c|)	*
!LO:MO:mod=*null:null	!	!LO:MO:mod=*null:null	!	!LO:MO:mod=*null:null	!	!LO:MO:mod=*null:null	!
*all\right	*	*all\right	*	*all\right	*	*all\right	*
=1-	=1-	=1-	=1-	=1-	=1-	=1-	=1-
!!LO:TX:t=P:problem:ołówkiem oznaczone oddechy, w większości pokrywają się z kreskami taktowymi w transkrypcji	!	!	!	!	!	!	!
*xywh-#394:8031,2316,6296,1012	*	*xywh-#293:784,2157,7135,1317	*	*xywh-#194:1389,3471,6769,1465	*	*xywh-#90:7778,429,6819,1272	*
0GG,	San-	1G	San-	1B-	San-	0d	San-
!	!	!	!	!LO:MO:mod=*null:null	!	!	!
*	*	*	*	*2\right	*	*	*
!	!	!	!LO:MO:null:mod=-ctus	!	!LO:MO:mod=-ctus	!	!
.	.	2G/	.	2B-\,	-ct(us)	.	.
*	*	*	*	*	*ij	*	*
!	!	!	!LO:MO:null:mod=[San-	!	!	!	!
.	.	1G,	.	1B-	San-	.	.
=2-	=2-	=2-	=2-	=2-	=2-	=2-	=2-
!LO:TX:t=P:problem:kreska pseudotaktowa	!	!	!	!	!	!LO:TX:t=P:problem:kreska pseudotaktowa	!
0D;,	-ctus	.	.	.	.	0d;	-ctus
!	!	!	!LO:MO:mod=.	!	!	!	!
.	.	4F#X/	-ctus	4A/	.	.	.
.	.	4E/	.	4G/	.	.	.
!	!	!LO:TX:t=P:problem:kreska pseudotaktowa	!	!LO:TX:t=P:problem:kreska pseudotaktowa	!	!	!
!	!	!LO:MO:mod=!null:null	!	!LO:MO:mod=!null:null	!	!	!
!	!	!LO:N:vis=0	!LO:MO:null:mod=-ctus]	!LO:N:vis=0	!LO:MO:mod=-ctus	!	!
.	.	1F#;	.	1A;,	-ct(us)	.	.
!LO:MO:mod==3	!LO:MO:mod==3	!LO:MO:mod==3	!LO:MO:mod==3	!LO:MO:mod==3	!LO:MO:mod==3	!LO:MO:mod==3	!LO:MO:mod==3
=3||	=3||	=3||	=3||	=3||	=3||	=3||	=3||
!	!	!	!	!LO:MO:mod=*null:null	!	!	!
*	*	*	*	*M2/1	*	*	*
!	!	!	!	!LO:MO:mod=*null:null	!	!	!
*	*	*	*	*met(C|)	*	*	*
*	*ij	*	*	*	*	*	*ij
0BB-,	San-	1B-	San-	1d	San-	0f	San-
!	!	!LO:MO:mod=*null:null	!	!	!	!	!
*	*	*2\right	*	*	*	*	*
!	!	!	!LO:MO:null:mod=-ctus	!	!LO:MO:mod=-ctus	!	!
.	.	2B-\	.	2d\,	-ct(us)	.	.
!	!	!	!LO:MO:null:mod=[San]-	!	!	!	!
.	.	1B-,	.	1d	San-	.	.
=4-	=4-	=4-	=4-	=4-	=4-	=4-	=4-
!LO:TX:t=P:problem:kreska pseudotaktowa	!	!	!	!	!	!LO:TX:t=P:problem:kreska pseudotaktowa	!
0FF;,	-ctus	.	.	.	.	0f;	-ctus
.	.	4A/	.	4c\	.	.	.
.	.	4G/	.	4B-\	.	.	.
!	!	!LO:TX:t=P:problem:kreska pseudotaktowa	!	!LO:TX:t=P:problem:kreska pseudotaktowa	!	!	!
!	!	!LO:MO:mod=!null:null	!	!	!	!	!
!	!	!LO:N:vis=0	!	!	!LO:MO:mod=-ctus	!	!
.	.	1A;	-ctus	1c;<,	-ct(us)	.	.
!LO:MO:mod==5	!LO:MO:mod==5	!LO:MO:mod==5	!LO:MO:mod==5	!LO:MO:mod==5	!LO:MO:mod==5	!LO:MO:mod==5	!LO:MO:mod==5
=5||	=5||	=5||	=5||	=5||	=5||	=5||	=5||
!	!	!LO:MO:mod=*null:null	!	!	!	!	!
*	*	*M2/1	*	*	*	*	*
!	!	!LO:MO:mod=*null:null	!	!	!	!	!
*	*	*met(C|)	*	*	*	*	*
0C,	San-	0G,	San-	1c	San-	1e-X	San-
!	!	!	!	!	!	!LO:MO:mod=*null:null	!
*	*	*	*	*	*	*2\right	*
!	!	!	!	!	!LO:MO:mod=-ctus	!	!
.	.	.	.	2c\,	-ct(us)	2e-\	-ctus
.	.	.	.	1c	San-	1e-	San-
=6-	=6-	=6-	=6-	=6-	=6-	=6-	=6-
!LO:TX:t=P:problem:kreska pseudotaktowa	!	!LO:TX:t=P:problem:kreska pseudotaktowa	!	!	!	!	!
0GG	-ctus	0G,	-ctus	.	.	.	.
!	!	!	!	!LO:MO:mod=!null:null	!	!	!
!	!	!	!	!LO:N:acc=#	!	!	!
.	.	.	.	4Bn\	.	4d\	.
!	!	!	!	!LO:TX:t=P:problem:kreska pseudotaktowa	!	!	!
.	.	.	.	4A\	.	4c\	.
!	!	!	!	!LO:MO:mod=!null:null	!	!	!
!	!	!	!	!LO:N:acc=#	!LO:MO:mod=-ctus	!LO:TX:t=P:problem:kreska pseudotaktowa	!
!	!	!	!	!LO:MO:mod=1B	!	!	!
.	.	.	.	1Bn,	-ct(us)	1d	ctus
*	*Xij	*	*	*	*Xij	*	*Xij
=7-	=7-	=7-	=7-	=7-	=7-	=7-	=7-
!LO:TX:t=P:problem:kreska pseudotaktowa	!	!	!	!	!	!	!
!LO:TX:a:t=1.:mod=	!	!	!	!	!	!	!
1r	.	1r	.	1.d	Do-	00r	.
!	!LO:MO:mod=Do-	!	!	!	!	!	!
1.G,	D(o-	1.B-,	Do-	.	.	.	.
!	!	!	!	!LO:TX:t=P:problem:kreska pseudotaktowa	!	!	!
.	.	.	.	2d\	-mi-	.	.
=8-	=8-	=8-	=8-	=8-	=8-	=8-	=8-
!	!	!	!	!	!LO:MO:mod=-nus	!	!
.	.	.	.	1B-X,	-n(us)	.	.
!LO:MO:mod=*null:null	!	!	!	!	!	!	!
*2\right	*	*	*	*	*	*	*
2G\	-mi-	2B-\	-mi-	.	.	.	.
!	!LO:MO:mod=-nus	!LO:TX:t=P:problem:kreska pseudotaktowa	!	!	!LO:MO:mod=De-	!	!
1E,	-nus)	1G,	-nus	1.c	DE-	.	.
=9-	=9-	=9-	=9-	=9-	=9-	=9-	=9-
!LO:TX:t=P:problem:kreska pseudotaktowa	!LO:MO:mod=De-	!	!LO:MO:mod=De-	!	!	!	!
1F	DE-	1A	DE-	.	.	1.f	Do-
!	!	!	!	!	!LO:MO:mod=-us	!	!
.	.	.	.	1A,	-(us)	.	.
!	!	!LO:TX:t=P:problem:kreska pseudotaktowa	!LO:MO:mod=-us	!	!	!	!
1D,	-us	1F,	-VS	.	.	.	.
!	!	!	!	!	!	!LO:TX:t=P:problem:kreska pseudotaktowa	!
.	.	.	.	4d\	Sa-	2f\	-mi-
.	.	.	.	4c\	.	.	.
=10-	=10-	=10-	=10-	=10-	=10-	=10-	=10-
!	!	!	!	!	!	!	!LO:MO:mod=-nus
2.G\	Sa-	2.G/	Sa-	4B-\	.	2d\	-n(us)
.	.	.	.	4A/	.	.	.
!	!	!	!	!	!	!	!LO:MO:mod=De-
.	.	.	.	1B-	.	2.g\	DE-
4F\	.	4A/	.	.	.	.	.
4E-X\	.	2B-\	.	.	.	.	.
4D/	.	.	.	.	.	4f\	.
*	*	*	*	*custos:c	*	*	*
*	*	*	*	*xywh-#194:7930,612,6971,1191	*	*	*
!	!	!	!	!LO:PB:g=original	!	!LO:SIC:s=1e-	!
2E-\,	.	2G/,	.	4c\	.	1e-X	.
!	!	!	!	!LO:TX:t=P:problem:kreska pseudotaktowa	!	!	!
.	.	.	.	4B-\,	.	.	.
=11-	=11-	=11-	=11-	=11-	=11-	=11-	=11-
!	!	!	!LO:MO:mod=.	!	!	!	!
1.F	.	1.F	-ba-	4A/	.	.	.
.	.	.	.	4F/	.	.	.
!	!	!	!	!	!	!LO:TX:t=P:problem:kreska pseudotaktowa	!LO:MO:mod=-us
.	.	.	.	1B-	.	2d\	-VS
.	.	.	.	.	.	2.c\	Sa-
!	!	!LO:TX:t=P:problem:kreska pseudotaktowa	!	!	!	!	!
!LO:TX:t=P:problem:kreska pseudotaktowa	!	!	!LO:MO:null:mod=-ba-	!	!	!	!
2F\	-ba-	2F/	.	2A/,	-ba-	.	.
.	.	.	.	.	.	4c\	-ba-
*	*	*custos:F	*	*	*	*	*
!	!	!LO:LB:g=original	!	!	!	!	!
=12-	=12-	=12-	=12-	=12-	=12-	=12-	=12-
!	!LO:MO:mod=oth.	!	!LO:MO:mod=-oth.	!LO:TX:t=P:problem:kreska pseudotaktowa	!LO:MO:mod=-oth.	!	!LO:MO:mod=-oth.
*	*	*xywh-#293:1044,3036,6651,1152	*	*	*	*	*
2BB-/	-oth	2F/	-oth	1B-	-oth	2d\	-oth
!	!	!LO:TX:t=P:problem:kreska pseudotaktowa	!	!	!	!LO:TX:t=P:problem:kreska pseudotaktowa	!
2B-\	Ple-	2r	.	.	.	2d\	Ple-
2B-\	-ni	1r,	.	1r	.	2d\	-ni
!LO:TX:t=P:problem:kreska pseudotaktowa	!	!	!	!	!	!	!
2A\	sunt	.	.	.	.	2c/	ſunt
*custos:B	*	*	*	*	*	*	*
!LO:LB:g=original	!	!	!	!	!	!	!
=13-	=13-	=13-	=13-	=13-	=13-	=13-	=13-
*xywh-#394:8011,3070,6395,983	*	*	*	*	*	*	*
!	!	!	!	!	!	!	!LO:MO:null:mod=cae-
1B-	cae-	2r	.	2r	.	2.d\	.
!	!	!LO:TX:t=P:problem:kreska pseudotaktowa	!	!LO:TX:t=P:problem:kreska pseudotaktowa	!	!	!
.	.	2B-\	Ple-	2d\	Ple-	.	.
!	!	!	!	!	!	!LO:TX:t=P:problem:kreska pseudotaktowa	!LO:MO:mod=.
.	.	.	.	.	.	4eny\	cae-
*	*	*	*	*	*	*custos:f	*
*	*	*	*	*	*	*lig	*
!LO:TX:t=P:problem:kreska pseudotaktowa	!	!	!	!	!	!LO:LB:g=original	!
*	*	*	*	*	*	*xywh-#90:7890,1301,6574,1149	*
1F,	-li	2B-\	-ni	2d\	-ni	1f	.
!	!	!	!LO:MO:mod=sunt	!	!	!	!
.	.	2A\,	s(un)t	2c\,	ſunt	.	.
=14-	=14-	=14-	=14-	=14-	=14-	=14-	=14-
*	*ij	*	*	*	*	*	*
2r	.	1c	cae-	1.e-X	cae-	1g	.
2c\	Ple-	.	.	.	.	.	.
*	*	*	*	*	*	*Xlig	*
!	!	!LO:TX:t=P:problem:kreska pseudotaktowa	!	!	!	!	!
2c\	-ni	1G,	-li	.	.	1g	-li
!LO:TX:t=P:problem:kreska pseudotaktowa	!	!	!	!	!	!	!
!LO:MO:mod=!null:null	!	!	!	!	!	!	!
!LO:N:acc=#	!	!	!	!LO:TX:t=P:problem:kreska pseudotaktowa	!	!	!
2Bn\,	sunt	.	.	2d\,	.	.	.
=15-	=15-	=15-	=15-	=15-	=15-	=15-	=15-
*lig	*	*	*ij	*	*	*	*ij
!	!	!	!	!LO:TX:t=P:problem:kreska pseudotaktowa	!	!LO:TX:t=P:problem:kreska pseudotaktowa	!
1c	cae-	2r	.	1c	-li	1e-X	Ple-
.	.	2c\	Ple-	.	.	.	.
1G,	.	2c\	-ni	1r	.	2e-\	-ni
!	!	!LO:TX:t=P:problem:kreska pseudotaktowa	!	!	!	!	!
!	!	!LO:MO:mod=!null:null	!	!	!	!	!
!	!	!LO:N:acc=#	!LO:MO:mod=sunt	!	!	!	!
.	.	2Bn\,	s(un)t	.	.	2d\	ſunt
*Xlig	*	*	*	*	*	*	*
=16-	=16-	=16-	=16-	=16-	=16-	=16-	=16-
*	*	*lig	*	*	*	*	*
!	!	!	!	!LO:TX:t=P:problem:kreska pseudotaktowa	!LO:MO:mod=cae-	!	!
2C/	-li	1c	cae-	1e-X	Cae-	2.c\	cae-
!LO:TX:t=P:problem:kreska pseudotaktowa	!	!	!	!	!	!	!
2C/	Ple-	.	.	.	.	.	.
.	.	.	.	.	.	4d\	.
2C/	-ni	1G,	.	2e-\,	-li	4e-X\	.
.	.	.	.	.	.	4f\	.
!LO:MO:mod=!null:null	!	!	!	!	!	!	!
!LO:N:acc=#	!	!	!	!	!LO:MO:mod=et	!	!
2BBn/,	sunt	.	.	1d	&	4g\	.
!	!	!	!	!	!	!LO:TX:t=P:problem:kreska pseudotaktowa	!
.	.	.	.	.	.	4f\	.
*	*	*Xlig	*	*	*	*	*
=17-	=17-	=17-	=17-	=17-	=17-	=17-	=17-
!	!	!LO:TX:t=P:problem:kreska pseudotaktowa	!	!	!	!	!
1C	cae-	1G	-li	.	.	1e-X	.
.	.	.	.	1c	ter-	.	.
*	*	*	*Xij	*	*	*	*
2GG/	-li	2G/	et	.	.	2d\	-li
!LO:TX:t=P:problem:kreska pseudotaktowa	!	!	!	!	!	!	!
*	*Xij	*lig	*	*	*	*	*Xij
!	!LO:MO:mod=et	!	!	!LO:TX:t=P:problem:kreska pseudotaktowa	!	!LO:TX:t=P:problem:kreska pseudotaktowa	!
2GG/,	Et	1G,	ter-	2B-\,	.	2d\	Et
=18-	=18-	=18-	=18-	=18-	=18-	=18-	=18-
*	*	*	*	*lig	*	*	*
2.AA/	ter-	.	.	1A	.	0c	ter-
.	.	1F	.	.	.	.	.
4BB-/	.	.	.	.	.	.	.
1C,	.	.	.	1G,	.	.	.
*	*	*Xlig	*	*Xlig	*	*	*
!	!	!LO:TX:t=P:problem:kreska pseudotaktowa	!	!	!	!	!
.	.	2E/,	.	.	.	.	.
=19-	=19-	=19-	=19-	=19-	=19-	=19-	=19-
!LO:TX:t=P:problem:kreska pseudotaktowa	!	!	!	!LO:TX:t=P:problem:kreska pseudotaktowa	!	!LO:TX:t=P:problem:kreska pseudotaktowa	!
1FF	-ra	2F/	-ra	1A	-ra	1c	-ra
.	.	2.F/	glo-	.	.	.	.
4FF/	glo-	.	.	2r	.	1r	.
4GG/	.	8E/L	.	.	.	.	.
.	.	8D/J	.	.	.	.	.
4AA/	.	4C/	.	2.c\	glo-	.	.
!	!	!LO:TX:t=P:problem:kreska pseudotaktowa	!	!	!	!	!
4BB-/,	.	4D/,	.	.	.	.	.
=20-	=20-	=20-	=20-	=20-	=20-	=20-	=20-
2.C/	.	2.E/	.	.	.	2r	.
.	.	.	.	8B-\L	.	.	.
.	.	.	.	8A\J	.	.	.
.	.	.	.	4G/	.	2.g\	glo-
!	!	!	!	!LO:TX:t=P:problem:kreska pseudotaktowa	!	!	!
8BB-/L	.	4F/	.	4A/	.	.	.
8AA/J	.	.	.	.	.	.	.
4GG/	.	2.G/	.	4B-\	.	.	.
4AA/	.	.	.	4c\	.	8f\L	.
.	.	.	.	.	.	8eny\J	.
4BB-/	.	.	.	2.d\,	.	4d\	.
!	!	!LO:TX:t=P:problem:kreska pseudotaktowa	!	!	!	!LO:TX:t=P:problem:kreska pseudotaktowa	!
4GG/,	.	4G/,	-ri-	.	.	4e\	.
=21-	=21-	=21-	=21-	=21-	=21-	=21-	=21-
2.D/	.	2A/	-a	.	.	[1f	.
.	.	.	.	8c\L	.	.	.
.	.	.	.	8B-\J	.	.	.
.	.	2.A/	glo-	4A\	.	.	.
!	!	!	!	!LO:TX:t=P:problem:kreska pseudotaktowa	!	!	!
4D/	-ri-	.	.	4B-\	.	.	.
1C,	-a	.	.	1c,	.	4f\]	.
.	.	4A/	-ri-	.	.	4f\	-ri-
!	!	!LO:TX:t=P:problem:kreska pseudotaktowa	!	!	!	!	!
.	.	2G/,	-a	.	.	2e-X\	-a
=22-	=22-	=22-	=22-	=22-	=22-	=22-	=22-
0D,	tu-	2F#X/	tu-	2c\	-ri-	0d	tu-
!	!	!	!	!LO:TX:t=P:problem:kreska pseudotaktowa	!	!	!
.	.	1G	.	2B-\	-a	.	.
*	*	*	*	*custos:A	*	*	*
*	*	*	*	*xywh-#194:7931,1422,6816,1072	*	*	*
!	!	!	!	!LO:LB:g=original	!	!	!
.	.	.	.	1A,	tu-	.	.
!	!	!LO:TX:t=P:problem:kreska pseudotaktowa	!	!	!	!	!
.	.	2F#/,	.	.	.	.	.
*	*	*custos:G	*	*	*	*	*
!	!	!LO:LB:g=original	!	!	!	!	!
=23-	=23-	=23-	=23-	=23-	=23-	=23-	=23-
!LO:SIC:s=1GG	!	!	!	!LO:SIC:s=1B-	!	!	!
!LO:TX:t=P:problem:kreska pseudotaktowa	!LO:MO:mod=-a.	!	!LO:MO:mod=-a.	!LO:TX:t=P:problem:kreska pseudotaktowa	!LO:MO:mod=-a.	!LO:TX:t=P:problem:kreska pseudotaktowa	!LO:MO:mod=-a.
*	*	*xywh-#293:1079,3821,6627,1033	*	*	*	*	*
1GG;	-a	2G,/	-a	1B-X	-a	1d	-a
!	!	!LO:TX:t=P:problem:kreska pseudotaktowa	!LO:MO:mod=Ho-	!	!	!	!
.	.	2G/	O-	.	.	.	.
*custos:D	*	*	*	*	*	*	*
!LO:LB:g=original	!	!	!	!	!	!	!
!LO:TX:t=P:problem:kreska pseudotaktowa	!	!	!	!	!	!LO:TX:t=P:problem:kreska pseudotaktowa	!
*xywh-#394:8090,3716,6356,1261	*	*	*	*	*	*	*
1r	.	4.B-\	-san-	2r	.	0r	.
!	!	!	!LO:MO:null:mod=-na	!	!	!	!
.	.	8A/	.	.	.	.	.
!	!	!	!LO:MO:mod=in	!	!	!	!
.	.	4G/	-na	4r,	.	.	.
!	!	!LO:TX:t=P:problem:kreska pseudotaktowa	!LO:MO:mod=ex-	!LO:TX:t=P:problem:kreska pseudotaktowa	!LO:MO:mod=Ho-	!	!
.	.	4F#X/,	in	4A/	O-	.	.
=24-	=24-	=24-	=24-	=24-	=24-	=24-	=24-
!	!	!	!LO:MO:mod=-cel-	!	!	!	!
2r	.	4.G/	ex-	4.B-\	-san-	.	.
.	.	8A/	.	8A/	-na	.	.
!	!	!	!LO:MO:mod=.	!	!	!	!
4r	.	4B-\	-cel-	4G/	in	.	.
!LO:TX:t=P:problem:kreska pseudotaktowa	!LO:MO:mod=Ho-	!	!	!LO:TX:t=P:problem:kreska pseudotaktowa	!	!	!
4D/,	O-	4A\	.	4F#X/	ex-	.	.
!	!	!LO:TX:t=P:problem:kreska pseudotaktowa	!	!	!	!	!
4.E-X\	-ſan-	1G,	-ſis	4G/	-cel-	2r	.
.	.	.	.	4G/	-ſis	.	.
8D/	-na	.	.	.	.	.	.
4C/	in	.	.	4r,	.	4r	.
*	*	*	*	*	*ij	*	*
!LO:TX:t=P:problem:kreska pseudotaktowa	!	!	!	!	!	!	!
!LO:TX:b:t=P:problem:# below	!	!	!	!	!	!	!
!LO:MO:mod=!null:null	!	!	!	!	!	!	!
!LO:N:acc=#	!	!	!	!LO:TX:t=P:problem:kreska pseudotaktowa	!LO:MO:mod=Ho-	!	!
4BBn/,	ex-	.	.	4d\	O-	4d\	Ho-
=25-	=25-	=25-	=25-	=25-	=25-	=25-	=25-
2C/,	-cel-	1r	.	4.c\	-san-	4.e-X\	-san-
!	!	!	!	!	!	!	!LO:MO:null:mod=-na
.	.	.	.	8d\	-na	8d\	.
!	!	!	!	!	!	!	!LO:MO:mod=[in]
4C/	-ſis	.	.	4e-X\	in	4c/	-na
*	*ij	*	*	*	*	*	*
!	!	!	!	!	!	!LO:TX:t=P:problem:kreska pseudotaktowa	!
!	!	!	!	!	!	!LO:MO:mod=!null:null	!
!	!LO:MO:mod=Ho-	!	!	!LO:TX:t=P:problem:kreska pseudotaktowa	!	!LO:N:acc=#	!
4G\	O-	.	.	4d\	ex-	4Bn/	ex-
4.A\	-ſan-	2r	.	4.c\	-cel-	4.c/	-cel-
8G\	-na	.	.	8B-\	.	16d\LL	.
.	.	.	.	.	.	16e-\JJ	.
*	*	*	*ij	*	*	*custos:f	*
!	!	!LO:TX:t=P:problem:kreska pseudotaktowa	!LO:MO:mod=Ho-	!	!	!LO:LB:g=original	!
*	*	*	*	*	*	*xywh-#90:8124,2172,6016,982	*
4F\	in	2c\	O-	4A/	.	4f\	.
!LO:TX:t=P:problem:kreska pseudotaktowa	!	!	!	!LO:TX:t=P:problem:kreska pseudotaktowa	!	!	!
4Eny\,	ex-	.	.	4G/,	.	8g\	-sis
!	!	!	!	!	!	!LO:TX:t=P:problem:kreska pseudotaktowa	!
.	.	.	.	.	.	8g\	Ho-
=26-	=26-	=26-	=26-	=26-	=26-	=26-	=26-
2F\	-cel-	4.c\	-san-	4.Fny/	.	4.a\	-san-
.	.	8B-\	na	8G/	.	8g\	-na
4F\	-ſis	4A/	in	4A/	-ſis	4f\	in
*	*	*	*	*	*Xij	*	*
!	!LO:MO:mod=Ho-	!LO:TX:t=P:problem:kreska pseudotaktowa	!	!LO:TX:t=P:problem:kreska pseudotaktowa	!LO:MO:mod=Ho-	!LO:TX:t=P:problem:kreska pseudotaktowa	!
4C/	O-	4G/	ex-	4eny\	o-	4eny\	ex-
4.D/	-ſan-	2Fny/	-cel-	4.f\	-ſan-	4.d\	-cel-
8C/	-na	.	.	8e\	-na	8e\	.
4BB-y/	in	4F/	-ſis	4d\	in	4f\	-sis
*	*	*	*	*	*	*	*ij
!LO:TX:t=P:problem:kreska pseudotaktowa	!	!LO:TX:t=P:problem:kreska pseudotaktowa	!LO:MO:mod=Ho-	!LO:TX:t=P:problem:kreska pseudotaktowa	!	!LO:TX:t=P:problem:kreska pseudotaktowa	!
4AA/,	ex-	4c\,	O-	4c\,	ex-	4f\	Ho-
=27-	=27-	=27-	=27-	=27-	=27-	=27-	=27-
2BB-/	-cel-	4.d\	-san-	4.B-\	-cel-	4.f\	-san-
.	.	8c\	-na	8c\	.	8e-X\	-na
4BB-/	-ſis	4B-\	in	4d\	-ſis	4d\	in
*	*	*	*	*	*ij	*	*
!LO:TX:t=P:problem:kreska pseudotaktowa	!LO:MO:mod=Ho-	!LO:TX:t=P:problem:kreska pseudotaktowa	!	!LO:TX:t=P:problem:kreska pseudotaktowa	!LO:MO:mod=Ho-	!LO:TX:t=P:problem:kreska pseudotaktowa	!
4F\	O-	4A\	ex-	4c\	o-	4f\	ex-
2C/	-ſan-	4G/	-cel-	4.c\	-ſan-	4.e-X\	-cel-
.	.	4G/	-ſis	.	.	.	.
.	.	.	.	8d\	-na	8d\	.
4C/	-na	4r	.	4e-X\	in	4c/	.
*	*	*	*Xij	*	*	*	*
!	!	!	!	!	!	!LO:MO:mod=!null:null	!
!	!LO:MO:mod=Ho-	!LO:TX:t=P:problem:kreska pseudotaktowa	!LO:MO:mod=Ho-	!LO:TX:t=P:problem:kreska pseudotaktowa	!	!LO:N:acc=#	!
4GG/,	O-	4d\,	O-	4d\,	ex-	4Bn/	.
=28-	=28-	=28-	=28-	=28-	=28-	=28-	=28-
2C/	-ſan-	4.e-X\	-san-	4.c\	-cel-	2c/	-sis
!	!	!	!LO:MO:null:mod=-na	!	!	!	!
.	.	8d\	.	8d\	.	.	.
!	!	!	!LO:MO:mod=in	!	!	!LO:TX:t=P:problem:kreska pseudotaktowa	!
4C/	-na	4c\	-na	4e-X\	.	2r	.
!	!	!LO:TX:t=P:problem:kreska pseudotaktowa	!	!	!	!	!
!	!	!LO:TX:t=P:problem:# above	!	!	!	!	!
!	!	!LO:MO:mod=!null:null	!	!	!	!	!
!LO:TX:t=P:problem:kreska pseudotaktowa	!LO:MO:mod=Ho-	!LO:N:acc=#	!LO:MO:mod=ex-	!LO:TX:t=P:problem:kreska pseudotaktowa	!	!	!
4G\	O-	4Bn\	in	4d\	.	.	.
*	*	*	*	*custos:c	*	*	*
*	*	*	*	*xywh-#194:7919,2185,2657,1001	*	*	*
!	!	!	!LO:MO:mod=-cel-	!LO:LB:g=original	!	!	!
4.A\	-ſan-	4.c\	ex-	2c\	-ſis	2r	.
8G\	-na	8B-\	.	.	.	.	.
!	!	!	!LO:MO:mod=.	!LO:TX:t=P:problem:kreska pseudotaktowa	!	!	!
4F\	in	4A/	-cel-	2r,	.	4r	.
!LO:TX:t=P:problem:kreska pseudotaktowa	!	!LO:TX:t=P:problem:kreska pseudotaktowa	!LO:MO:mod=.	!	!	!LO:TX:t=P:problem:kreska pseudotaktowa	!
4E\	ex-	4G/,	-ſis	.	.	4g\	Ho-
*custos:F	*	*	*	*	*	*	*
!LO:PB:g=original	!	!	!	!	!	!	!
=29-	=29-	=29-	=29-	=29-	=29-	=29-	=29-
*xywh-#395:1413,706,2310,1138	*	*	*	*	*	*	*
4.F\	-cel-	4.F/	.	2r	.	4.a\	-san-
8E\	.	8G/	.	.	.	8g\	-na
*	*	*custos:A	*	*	*	*	*
!	!	!LO:PB:g=original	!	!	!	!	!
!	!	!LO:TX:t=P:problem:kreska pseudotaktowa	!	!	!	!	!
*	*	*xywh-#293:7654,733,2197,985	*	*	*	*	*
4D/	.	2A/	.	4r	.	4f\	in
!LO:TX:t=P:problem:kreska pseudotaktowa	!	!	!	!	!	!	!
!LO:TX:b:t=P:problem:# below	!	!	!	!LO:TX:t=P:problem:kreska pseudotaktowa	!LO:MO:mod=Ho-	!LO:TX:t=P:problem:kreska pseudotaktowa	!
4C#X/,	.	.	.	4eny\	o-	4eny\	ex-
!	!	!	!LO:MO:null:mod=-sis	!	!	!	!
4.D/	.	2A/	.	4.f\	-ſan-	4.d\	-cel-
8C/	.	.	.	8e\	-na	8e\	.
4BB-/	.	4r	.	4d\	in	4f\	-sis
!	!	!LO:TX:t=P:problem:kreska pseudotaktowa	!LO:MO:null:mod=[Ho-	!LO:TX:t=P:problem:kreska pseudotaktowa	!	!	!
4AA/	.	4A/,	.	4c\,	ex-	8.f#X\	in
!	!	!	!	!	!	!LO:TX:t=P:problem:kreska pseudotaktowa	!
.	.	.	.	.	.	16f#\	ex-
=30-	=30-	=30-	=30-	=30-	=30-	=30-	=30-
!	!	!	!LO:MO:null:mod=-san-	!	!	!	!
1GG	.	4.B-y\	.	4.d\	-cel-	(2g\	-cel-
!	!	!	!LO:MO:null:mod=-na	!	!	!	!
.	.	8A/	.	8c\L	.	.	.
!	!	!	!LO:MO:null:mod=in	!	!	!	!
.	.	8G/	.	8B-\	.	2d\)	.
!	!	!	!LO:MO:null:mod=ex-	!	!	!	!
.	.	8A/	.	8A\J	.	.	.
!	!	!	!LO:MO:null:mod=-cel-	!	!	!	!
.	.	4B-/	.	4G/	.	.	.
!LO:MO:mod=!LO&colon;N&colon;vis=0	!	!	!	!LO:MO:mod=!LO&colon;N&colon;vis=0	!	!LO:MO:mod=!LO&colon;N&colon;vis=0	!
!null	!LO:MO:mod=-sis.	!LO:N:vis=0	!LO:MO:null:mod=-sis.]	!null	!LO:MO:mod=-sis.	!null	!LO:MO:mod=-sis.
1D;	-ſis	1A;	.	1F#X;	-ſis	1d;	-sis
*	*	*	*	*	*Xij	*	*Xij
==	==	==	==	==	==	==	==
*-	*-	*-	*-	*-	*-	*-	*-
!!!system-decoration: [(*)]
!!!RDF**kern: > = above
!!!RDF**kern: < = below
!!!filter-modern: shed -k -e "s/,//D" | shed -e "s/TX(.*):t=P:/tx$1:t=P:/LG" | sic -sq | modori -m | autostem -r | tie -s | humtr -p | shed -e "s/-//B" | shed -e "s/^custos:/Xcustos:/I" | shed -k -e "s/[<>]//g"
!!!ENC: Berenika Jozajtis
!!!END: 2022-05-04
!!!ENC: Jan Barakat
!!!END: 2022-06-03
!!!ENC-modern: Andrzej Kubiczek
!!!END-modern: 2022-06-26
!!!YEC: Copyright 2022 Narodowy Instytut Fryderyka Chopina (https://polishscores.org)
!!!YEM: License CC-BY-4.0 (https://creativecommons.org/licenses/by/4.0)
!!!IIIF: https://repozytorium.nifc.pl/islandora/object/pl-kk%3A750/datastream/IIIF/view#page=87
!!!ENC-iiif: Marta Opryszak
!!!END-iiif: 2022-09-08
